X:39
T:Coachman's whip
R:Reel
O:Ireland
S:Music from Ireland Vol. 3
B:Music from Ireland Vol. 3
Z:Transcription, chords:Mike Long
M:C|
L:1/8
K:G
"G"d2BG DGBG|"Em"E2BE dEGB|"G"d2BG DGBG|"D"FGAd "G"BGGB|"G"d2BG DGBG|
"Em"E2BE dEBE|"G"DEGA Bdef|"D"gdcA "G"BGGB:|\
|:"G"d3e G3E|DGBG DGBG|"Em"E2BE dEGB|
dBAG EGGB|"G"d3e G3E|DGBG DGBG|"D"F2AB cdef|"D"gdcA "G"BGG2:|
